Pods/ProtonCore-UIFoundations/libraries/UIFoundations/Sources/Assets.xcassets/Images/IconSet/ic-palette.imageset/ic-palette.svg

<svg width="24" height="24" viewBox="0 0 24 24" fill="none" xmlns="http://www.w3.org/2000/svg">
<path fill-rule="evenodd" clip-rule="evenodd" d="M2.25 12C2.25 6.61522 6.61522 2.25 12 2.25C17.3848 2.25 21.75 6.61522 21.75 12C21.75 12.3558 21.731 12.7068 21.6939 13.0522C21.6065 13.8678 20.8261 14.5075 19.8076 14.5075H13.0521C10.3572 14.5075 9.02897 17.7849 10.9636 19.6611L12.199 20.8591C12.4158 21.0694 12.447 21.32 12.3939 21.4892C12.3676 21.5732 12.3223 21.6343 12.2693 21.6742C12.2196 21.7116 12.1376 21.75 12 21.75C6.61522 21.75 2.25 17.3848 2.25 12ZM12 0.75C5.7868 0.75 0.75 5.7868 0.75 12C0.75 18.2132 5.7868 23.25 12 23.25C12.9241 23.25 13.5922 22.6801 13.8251 21.9385C14.0505 21.2203 13.861 20.3813 13.2432 19.7823L12.0079 18.5843C11.0406 17.6462 11.7047 16.0075 13.0521 16.0075H19.8076C21.3863 16.0075 22.996 14.9789 23.1854 13.2121C23.2281 12.8137 23.25 12.4093 23.25 12C23.25 5.7868 18.2132 0.75 12 0.75ZM14.25 6C14.25 6.82843 13.5784 7.5 12.75 7.5C11.9216 7.5 11.25 6.82843 11.25 6C11.25 5.17157 11.9216 4.5 12.75 4.5C13.5784 4.5 14.25 5.17157 14.25 6ZM7.5 9.75C8.32843 9.75 9 9.07843 9 8.25C9 7.42157 8.32843 6.75 7.5 6.75C6.67157 6.75 6 7.42157 6 8.25C6 9.07843 6.67157 9.75 7.5 9.75ZM6 15C6.82843 15 7.5 14.3284 7.5 13.5C7.5 12.6716 6.82843 12 6 12C5.17157 12 4.5 12.6716 4.5 13.5C4.5 14.3284 5.17157 15 6 15ZM17.25 9.75C18.0784 9.75 18.75 9.07843 18.75 8.25C18.75 7.42157 18.0784 6.75 17.25 6.75C16.4216 6.75 15.75 7.42157 15.75 8.25C15.75 9.07843 16.4216 9.75 17.25 9.75Z" fill="#0C0C14"/>
</svg>

<svg xmlns="http://www.w3.org/2000/svg" width="24" height="24" viewBox="0 0 24 24">
  <g class="ic-palette">
    <path fill-rule="evenodd" d="M2.25 12A9.75 9.75 0 0 1 12 2.25a9.75 9.75 0 0 1 9.694 10.802c-.087.816-.868 1.456-1.886 1.456h-6.756c-2.695 0-4.023 3.277-2.088 5.153l1.235 1.198c.217.21.248.461.195.63a.361.361 0 0 1-.125.185.43.43 0 0 1-.269.076A9.75 9.75 0 0 1 2.25 12ZM12 .75C5.787.75.75 5.787.75 12S5.787 23.25 12 23.25c.924 0 1.592-.57 1.825-1.311.226-.719.036-1.558-.582-2.157l-1.235-1.198c-.967-.938-.303-2.576 1.044-2.576h6.756c1.578 0 3.188-1.03 3.377-2.796.043-.398.065-.803.065-1.212C23.25 5.787 18.213.75 12 .75ZM14.25 6a1.5 1.5 0 1 1-3 0 1.5 1.5 0 0 1 3 0ZM7.5 9.75a1.5 1.5 0 1 0 0-3 1.5 1.5 0 0 0 0 3ZM6 15a1.5 1.5 0 1 0 0-3 1.5 1.5 0 0 0 0 3Zm11.25-5.25a1.5 1.5 0 1 0 0-3 1.5 1.5 0 0 0 0 3Z" class="Icon"/>
  </g>
</svg>
